src/assets/svg/inventory-4.svg

<svg width="36" height="36" viewBox="0 0 36 36" fill="none" xmlns="http://www.w3.org/2000/svg">
<path d="M27 1.80482e-07C27.9082 -0.000287243 28.783 0.342732 29.449 0.960295C30.115 1.57786 30.5229 2.42432 30.591 3.33L30.6 3.6V7.2H32.4C33.3082 7.19971 34.183 7.54273 34.849 8.16029C35.515 8.77786 35.9229 9.62432 35.991 10.53L36 10.8V27C36.0003 27.9082 35.6573 28.783 35.0397 29.449C34.4221 30.115 33.5757 30.5229 32.67 30.591L32.4 30.6H25.2C24.6165 30.5999 24.0418 30.4579 23.5254 30.1864C23.0089 29.9148 22.5662 29.5218 22.2354 29.0412L22.0824 28.8H3.6C2.69176 28.8003 1.81698 28.4573 1.15101 27.8397C0.485047 27.2221 0.0771182 26.3757 0.00900039 25.47L1.80482e-07 25.2V3.6C-0.000287243 2.69176 0.342732 1.81698 0.960295 1.15101C1.57786 0.485047 2.42432 0.0771182 3.33 0.00900039L3.6 1.80482e-07H27ZM32.4 10.8H25.2V27H32.4V10.8ZM27 3.6H3.6V25.2H21.6V10.8C21.6 9.84522 21.9793 8.92955 22.6544 8.25442C23.3295 7.57929 24.2452 7.2 25.2 7.2H27V3.6Z" fill="#00C700"/>
</svg>

<svg xmlns="http://www.w3.org/2000/svg" width="36" height="36" fill="none"><path fill="#00C700" d="M27 0a3.6 3.6 0 0 1 3.591 3.33l.009.27v3.6h1.8a3.6 3.6 0 0 1 3.591 3.33l.009.27V27a3.6 3.6 0 0 1-3.33 3.591l-.27.009h-7.2a3.6 3.6 0 0 1-2.965-1.559l-.153-.241H3.6a3.6 3.6 0 0 1-3.591-3.33L0 25.2V3.6A3.6 3.6 0 0 1 3.33.009L3.6 0zm5.4 10.8h-7.2V27h7.2zM27 3.6H3.6v21.6h18V10.8a3.6 3.6 0 0 1 3.6-3.6H27z"/></svg>
